X:1
T:Fear an Mhargadh
C:Unknown composer
M:6/8
L:1/8
K:Hp
Q:3/8=56
g/2f/2 |: {gef}e2 A {g}A3/2{GdG}A/2{g}A | {gef}e2 A {g}Bcd |  {gef}e2 A {g}A3/2{GdG}A/2{g}A | {GdGc}dB{d}G {g}Bcd |
{gef}e2 A {gf}g2 A | {gef}e2 A {g}Bcd | {g}e3/2{G}d/2{A}e {gf}g2 e| {g}dB{d}G {g}Bcd :|: {gf}g3 f/2a3/2f | {gf}g2 e {g}Bcd | 
{gf}g3 {fg}f2 e | {g}dB{d}G {g}GBd | {gf}g2 e {ag}a2 f | {gf}g2 e {g}Bcd | afa {fg}f2 e | {g}dB{d}G {g}GBd :|